X: 43386
T: Wrong Box, The
R: slide
M: 12/8
K: Dmajor
fge fdB FBF dBF|G2 G edc ABA AGF|
fge fdB FBF dBF|G2 G edc edc B2 A:|
[M:9/8]afd A a2 f2 d|gec ABA ABc|afd A a2 f2 d|
gec ABA ABc|afd A a2 f2 d|gec ABA ABc|
afd A a2 f2 d|[M:12/8]gec ABA ABA GFE|
[M:9/8]afd A a2 f2 d|gec ABA ABc|
afd A a2 f2 d|gec ABA ABA|
[M:12/8]|:c2 c2 c2 d2 d2 ce|fdA G2 B AFD ABA|
c2 c2 c2 G2 G2 F2|1 G2 F2 E2 A3 ABA:|2 G2 F2 E2 D2 z z3||

